icons/svg/thumb-down.svg

﻿<?xml version="1.0" encoding="utf-8"?>
<!DOCTYPE svg PUBLIC "-//W3C//DTD SVG 1.1//EN" "http://www.w3.org/Graphics/SVG/1.1/DTD/svg11.dtd">
<svg xmlns="http://www.w3.org/2000/svg" xmlns:xlink="http://www.w3.org/1999/xlink" version="1.1" baseProfile="full" width="24" height="24" viewBox="0 0 24.00 24.00" enable-background="new 0 0 24.00 24.00" xml:space="preserve">
	<path fill="#000000" fill-opacity="1" stroke-width="0.2" stroke-linejoin="round" d="M 18.9994,14.998L 22.9994,14.998L 22.9994,2.99805L 18.9994,2.99805M 14.9994,2.99805L 5.99939,2.99805C 5.17139,2.99805 4.4614,3.50104 4.15738,4.21802L 1.14038,11.2711C 1.0524,11.496 0.99939,11.741 0.99939,11.998L 0.99939,13.913L 0.99939,13.998C 0.99939,15.103 1.89438,15.998 2.99939,15.998L 9.31439,15.998L 8.36041,20.567C 8.33942,20.6691 8.32739,20.774 8.32739,20.8831C 8.32739,21.2971 8.49536,21.6721 8.7674,21.9431L 9.82739,22.998L 16.4134,16.412C 16.7754,16.05 16.9994,15.55 16.9994,14.998L 16.9994,4.99805C 16.9994,3.89404 16.1034,2.99805 14.9994,2.99805 Z "/>
</svg>

<svg xmlns="http://www.w3.org/2000/svg" version="1.1" baseProfile="full" width="24" height="24" viewBox="0 0 24.00 24.00" xml:space="preserve"><path fill="#000" fill-opacity="1" stroke-width=".2" stroke-linejoin="round" d="M19 14.998h4v-12h-4m-4 0H6c-.83 0-1.54.503-1.843 1.22L1.14 11.27c-.088.226-.14.47-.14.728v2c0 1.105.894 2 2 2h6.314l-.954 4.57c-.02.1-.033.206-.033.315 0 .414.168.79.44 1.06l1.06 1.055 6.586-6.586c.362-.362.586-.862.586-1.414v-10c0-1.104-.897-2-2-2z"/></svg>
